X:1
T:Larry O'Gaff -- Jig
R:jig
B:Ryan's Mammoth Collection
N: 89 466
Z: Contributed by Ray Davies,  ray:davies99.freeserve.co.uk
M:6/8
L:1/8
K:G
ud|\
kg2G BAG | ded dBG | cec BdB | ABc def |
kg2G BAG | ded dBG | cec BdB | ABA G2:|
|:ud|\
d2g {a}gfg | {a}gfg {a}gfe | d2a {b}aga | {b}aga (b2a) |
gba gfe | dge dBG | (c<e)c (B<d)B | (A<B)A G2 :|
